data/icons/symbolic/app-remove-symbolic.svg

<?xml version="1.0" encoding="UTF-8"?>
<svg height="16px" viewBox="0 0 16 16" width="16px" xmlns="http://www.w3.org/2000/svg">
    <g fill="#222222">
        <path d="m 6 5 c 0.265625 0 0.519531 0.105469 0.707031 0.292969 l 1.292969 1.292969 l 1.292969 -1.292969 c 0.1875 -0.1875 0.441406 -0.292969 0.707031 -0.292969 s 0.519531 0.105469 0.707031 0.292969 c 0.390625 0.390625 0.390625 1.023437 0 1.414062 l -1.292969 1.292969 l 1.292969 1.292969 c 0.390625 0.390625 0.390625 1.023437 0 1.414062 s -1.023437 0.390625 -1.414062 0 l -1.292969 -1.292969 l -1.292969 1.292969 c -0.390625 0.390625 -1.023437 0.390625 -1.414062 0 s -0.390625 -1.023437 0 -1.414062 l 1.292969 -1.292969 l -1.292969 -1.292969 c -0.390625 -0.390625 -0.390625 -1.023437 0 -1.414062 c 0.1875 -0.1875 0.441406 -0.292969 0.707031 -0.292969 z m 0 0"/>
        <path d="m 8 -0.03125 c -4.402344 0 -8 3.597656 -8 8 s 3.597656 8 8 8 s 8 -3.597656 8 -8 s -3.597656 -8 -8 -8 z m 0 1.980469 c 3.339844 0 6.019531 2.679687 6.019531 6.019531 s -2.679687 6.015625 -6.019531 6.015625 s -6.015625 -2.675781 -6.015625 -6.015625 s 2.675781 -6.019531 6.015625 -6.019531 z m 0 0"/>
    </g>
</svg>

<svg xmlns="http://www.w3.org/2000/svg" width="16" height="16">
    <g fill="#222">
        <path d="M6 5a1 1 0 0 1 .707.293L8 6.586l1.293-1.293a1 1 0 1 1 1.414 1.414L9.414 8l1.293 1.293a1 1 0 1 1-1.414 1.414L8 9.414l-1.293 1.293a1 1 0 1 1-1.414-1.414L6.586 8 5.293 6.707A1 1 0 0 1 6 5m0 0"/>
        <path d="M8-.031c-4.402 0-8 3.597-8 8s3.598 8 8 8 8-3.598 8-8-3.598-8-8-8m0 1.98c3.34 0 6.02 2.68 6.02 6.02S11.34 13.984 8 13.984 1.984 11.31 1.984 7.97 4.66 1.949 8 1.949m0 0"/>
    </g>
</svg>
